packages/ui-icons/src/Basic/32/Notification_32.svg

<svg viewBox="0 0 40 40" xmlns="http://www.w3.org/2000/svg">
<path fill-rule="evenodd" clip-rule="evenodd" d="M23.45 7.99999C23.3394 7.16329 22.9285 6.39529 22.2939 5.83897C21.6592 5.28266 20.844 5 20 5C19.156 5 18.3408 5.28266 17.7061 5.83897C17.0715 6.39529 16.6606 7.16329 16.55 7.99999C14.5574 8.7354 12.849 10.0832 11.67 11.85C10.5971 13.5222 10.0183 15.4633 10 17.45V25.58L8 27.58V32H16.13C16.0407 32.3257 15.997 32.6623 16 33C16 34.0609 16.4214 35.0783 17.1716 35.8284C17.9217 36.5786 18.9391 37 20 37C21.0609 37 22.0783 36.5786 22.8284 35.8284C23.5786 35.0783 24 34.0609 24 33C24.003 32.6623 23.9593 32.3257 23.87 32H32V27.57L30 25.57V17.44C29.9753 15.4605 29.3968 13.5276 28.33 11.86C27.1526 10.0895 25.444 8.73804 23.45 7.99999ZM30 30H10V28.4L12 26.4V17.4C11.9832 15.5262 12.6246 13.706 13.8125 12.2567C15.0004 10.8075 16.6594 9.82126 18.5 9.46999V8.46999C18.5 8.07217 18.658 7.69064 18.9393 7.40933C19.2206 7.12803 19.6022 6.96999 20 6.96999C20.3978 6.96999 20.7794 7.12803 21.0607 7.40933C21.342 7.69064 21.5 8.07217 21.5 8.46999V9.46999C23.3492 9.82275 25.0147 10.8163 26.2037 12.2759C27.3926 13.7355 28.0286 15.5677 28 17.45V26.45L30 28.45V30ZM18 33C18.0006 32.6487 18.0937 32.3038 18.27 32H21.73C21.8841 32.2656 21.9749 32.5632 21.9955 32.8696C22.0161 33.176 21.9658 33.483 21.8486 33.7669C21.7314 34.0507 21.5504 34.3038 21.3196 34.5064C21.0888 34.709 20.8145 34.8558 20.5179 34.9353C20.2213 35.0148 19.9103 35.025 19.6091 34.965C19.308 34.905 19.0247 34.7764 18.7812 34.5892C18.5377 34.4021 18.3406 34.1614 18.2051 33.8858C18.0696 33.6102 17.9995 33.3071 18 33Z" />
</svg>

<svg viewBox="0 0 40 40" xmlns="http://www.w3.org/2000/svg"><path fill-rule="evenodd" clip-rule="evenodd" d="M23.45 8a3.48 3.48 0 0 0-1.156-2.161A3.457 3.457 0 0 0 20 5c-.844 0-1.66.283-2.294.839A3.48 3.48 0 0 0 16.55 8a10.05 10.05 0 0 0-4.88 3.85 10.55 10.55 0 0 0-1.67 5.6v8.13l-2 2V32h8.13a3.66 3.66 0 0 0-.13 1 4 4 0 1 0 7.87-1H32v-4.43l-2-2v-8.13a10.6 10.6 0 0 0-1.67-5.58A10.05 10.05 0 0 0 23.45 8ZM30 30H10v-1.6l2-2v-9a8 8 0 0 1 6.5-7.93v-1a1.5 1.5 0 1 1 3 0v1a8 8 0 0 1 6.5 7.98v9l2 2V30Zm-12 3a2 2 0 0 1 .27-1h3.46A2 2 0 1 1 18 33Z"/></svg>
